X: 10762
M: 6/8
L: 1/8
K: D
f |\
d2f def | g3 e2d | cde ABc | dfa A2f |\
d2f def | g3 e2d | cde ABc | (e3 d2) H|]
f |\
f3 efg | f2e d2e | f2e {f}edc | {e}dcd B>cd/e/ |\
f3 efg | f2e d2e | {g}fed cB^A | (c3 "^D.C."B2) |]


